src/icons/hds/some/linkedin.svg

<svg xmlns="http://www.w3.org/2000/svg" width="24" height="24" viewBox="0 0 24 24">
  <g fill="none" fill-rule="evenodd">
    <rect width="24" height="24"/>
    <path fill="currentColor" d="M19.0714286,3 L4.92857143,3 C3.86383929,3 3,3.86383929 3,4.92857143 L3,19.0714286 C3,20.1361607 3.86383929,21 4.92857143,21 L19.0714286,21 C20.1361607,21 21,20.1361607 21,19.0714286 L21,4.92857143 C21,3.86383929 20.1361607,3 19.0714286,3 Z M5.77232143,18.4285714 L5.77232143,9.83839286 L8.44419643,9.83839286 L8.44419643,18.4285714 L5.77232143,18.4285714 Z M5.559375,7.11830357 C5.559375,6.26651786 6.25044643,5.57142857 7.10625,5.57142857 C7.95803571,5.57142857 8.653125,6.26651786 8.653125,7.11830357 C8.653125,7.97410714 7.96205357,8.66517857 7.10625,8.66517857 C6.25044643,8.66517857 5.559375,7.97008929 5.559375,7.11830357 Z M15.7727679,18.4285714 L15.7727679,14.25 C15.7727679,13.2535714 15.7526786,11.971875 14.3866071,11.971875 C12.9964286,11.971875 12.7834821,13.0566964 12.7834821,14.1776786 L12.7834821,18.4285714 L10.115625,18.4285714 L10.115625,9.83839286 L12.675,9.83839286 L12.675,11.0116071 L12.7111607,11.0116071 C13.06875,10.3366071 13.940625,9.62544643 15.2383929,9.62544643 C17.9383929,9.62544643 18.440625,11.4053571 18.440625,13.7196429 L18.440625,18.4285714 L15.7727679,18.4285714 Z"/>
  </g>
</svg>

<svg viewBox="0 0 24 24" role="img" xmlns="http://www.w3.org/2000/svg"><g fill="none" fill-rule="evenodd"><path d="M0 0h24v24H0z"/><path d="M19.071 3H4.93A1.93 1.93 0 003 4.929V19.07A1.93 1.93 0 004.929 21H19.07A1.93 1.93 0 0021 19.071V4.93A1.93 1.93 0 0019.071 3zM5.772 18.429v-8.59h2.672v8.59H5.772zM5.56 7.119a1.548 1.548 0 113.095 0 1.548 1.548 0 01-3.095 0zm10.214 11.31V14.25c0-.996-.02-2.278-1.386-2.278-1.39 0-1.604 1.085-1.604 2.206v4.25h-2.667v-8.59h2.559v1.174h.036c.358-.675 1.23-1.387 2.527-1.387 2.7 0 3.203 1.78 3.203 4.095v4.709h-2.668z" fill="currentColor"/></g></svg>
